X:132
M:4/4
L:1/4
K:C
A E A B | c B/A/ ^G E | B c d c | B B A2 | A E A B | c B/A/ ^G E | B c d c | B B A2 | G G G E | F G A2 | G G F E | D D C2 | !sintro!c c B B | A B ^G E | B c d c | B c B2 | A4 !eintro!|]
